toolkits/global/packages/global-context/img/icons/arrow-sub.svg

<svg height="24" viewBox="0 0 24 24" width="24" xmlns="http://www.w3.org/2000/svg"><path d="m11 8v7.7999954l-2.48162731-2.4816273c-.39282216-.3928221-1.02197315-.4005617-1.40306523-.0194696-.39113012.3911301-.3914806 1.0249268.00014045 1.4165479l4.17620789 4.1762079c.3912077.3912077 1.0250815.3916069 1.41672-.0000316l4.1763942-4.1763942c.3912251-.3912251.39767-1.0190815.016578-1.4001736-.3911302-.3911301-1.0233711-.3930364-1.4195135.0031061l-2.4818345 2.4818344v-8.7999954c0-.54911294-.4426881-.99439484-.9977876-.99557515l-8.0022124-.00442485c-.55228475 0-1 .44771525-1 1s.44771525 1 1 1z" fill="#666" fill-rule="evenodd"/></svg>

<?xml version="1.0" encoding="UTF-8"?>
<svg width="24px" height="24px" viewBox="0 0 24 24" version="1.1" xmlns="http://www.w3.org/2000/svg" xmlns:xlink="http://www.w3.org/1999/xlink">
    <!-- Generator: Sketch 63.1 (92452) - https://sketch.com -->
    <title>icon-icon / arrow-sub</title>
    <desc>Created with Sketch.</desc>
    <g id="icon-/-arrow-sub" stroke="none" stroke-width="1" fill="none" fill-rule="evenodd">
        <path d="M11,8 L11,15.7999954 L8.51837269,13.3183681 C8.12555053,12.925546 7.49639954,12.9178064 7.11530746,13.2988985 C6.72417734,13.6900286 6.72382686,14.3238253 7.11544791,14.7154464 L11.2916558,18.8916543 C11.6828635,19.282862 12.3167373,19.2832612 12.7083758,18.8916227 L16.88477,14.7152285 C17.2759951,14.3240034 17.28244,13.696147 16.901348,13.3150549 C16.5102178,12.9239248 15.8779769,12.9220185 15.4818345,13.318161 L13,15.7999954 L13,7 C13,6.45088706 12.5573119,6.00560516 12.0022124,6.00442485 L4,6 C3.44771525,6 3,6.44771525 3,7 C3,7.55228475 3.44771525,8 4,8 L11,8 Z" id="arrow-sub" fill="#666666"></path>
    </g>
</svg>
